X:1
T:Title
%%score { ( 1 4 ) | ( 2 3 ) }
L:1/8
M:6/8
K:Bb
V:1 treble nm="Grand Piano"
V:4 treble 
V:2 bass 
V:3 bass 
V:1
 z3 z2[Q:1/4=92] [DF] | [Fd]2 [Fd] [Fd]2 [DB] | [DF]3 [DFB]2 [DFB] | A2 e G2 A | %4
[M:5/8] [EG]3 [DF]2 |[M:1/8] [DF] |[M:3/4] [Fd]2 [Fd] [Fd]2 [DB] | [DF]3 [DFB]2 [_DFB] | %8
 [CFA]2 [Fc] [=Ed]2 [Ec] |[M:5/8] F-F- F3 |[M:1/8] F |[M:3/4] F2 e G2 e | [Ge]3 [Fd]2 [Fd] | %13
 [Fd]2 [DF] [DF]2 [Fd] |[M:5/8] d3 c2 |[M:1/8] c |[M:3/4] [Fd]2 [Fd]d c[FB] | [Ge]3 G2 G | %18
 F2 B d2 c |[M:5/8] [DB]-[DB]- [DB]3 |[M:3/4] [DF]F F [B,DF]2 [B,DG] | [A,EG]2 [A,EF] [A,EF]3 | %22
 [DF]F F [DB]2 [Fd] |[M:5/8] d2 c c2 |[M:1/8] c |[M:3/4] [Fd]2 [Fd][Fd] [Fc][FB] | %26
 [GB]2 [GB][Gc] [GB]G | F2 B d2 c |[M:5/8] [DB]-[DB]- [DB]3 |] %29
V:2
 z3 z2 [B,,B,] | [B,,B,]2 [B,,B,] [B,,B,]2 [B,,B,] | [B,,B,]3 B,,2 B,, | %3
 [F,CF]2 [F,CF] [F,CE]2 [F,CE] |[M:5/8] [B,,B,]-[B,,B,]- [B,,B,]3 |[M:1/8] [B,,B,] | %6
[M:3/4] [B,,B,]2 [B,,B,] [B,,B,]2 [B,,B,] | [B,,B,]3 B,,2 B,, | C,2 [C,A,] [C,G,]2 [C,B,] | %9
[M:5/8] [F,A,]-[F,A,]- [F,A,]3 |[M:1/8] [F,A,] |[M:3/4] [F,A,]2 [F,CF] [F,B,E]2 [F,A,F] | %12
 [B,,B,]3 [B,,B,]2 [B,,B,] | [B,,B,]2 [B,,B,] [B,,B,]2 [B,,B,] |[M:5/8] [F,F]-[F,F]- [F,F]3 | %15
[M:1/8] [F,A,F] |[M:3/4] [B,,B,]2 [B,,B,][B,,B,] [C,A,][D,B,] | [E,B,]3 [E,B,E]2 [E,B,E] | %18
 [F,B,D]2 [F,DF] [F,B,F]2 [F,A,E] |[M:5/8] [B,,B,]-[B,,B,]- [B,,B,]3 |[M:3/4] z D D B,,2 B,, | %21
 C,2 C, C,3 | z D D [B,,B,]2 [B,,B,] |[M:5/8] [F,B,F]2 [F,A,F] [F,A,F]2 |[M:1/8] [F,A,F] | %25
[M:3/4] [B,,B,]2 [B,,B,][B,,B,] [C,A,][D,B,] | [E,E]2 [E,E][E,E] [E,E][E,B,E] | %27
 [F,B,D]2 [F,DF] [F,B,F]2 [F,A,E] |[M:5/8] [B,,B,]-[B,,B,]- [B,,B,]3 |] %29
V:3
 x6 | x6 | x6 | x6 |[M:5/8] x5 |[M:1/8] x |[M:3/4] x6 | x6 | x6 |[M:5/8] x5 |[M:1/8] x | %11
[M:3/4] x6 | x6 | x6 |[M:5/8] B,3 A,2 |[M:1/8] x |[M:3/4] x6 | x6 | x6 |[M:5/8] x5 | %20
[M:3/4] [B,,B,]4 z2 | x6 | [D,B,]4 z2 |[M:5/8] x5 |[M:1/8] x |[M:3/4] x6 | x6 | x6 |[M:5/8] x5 |] %29
V:4
 x6 | x6 | x6 | x6 |[M:5/8] x5 |[M:1/8] x |[M:3/4] x6 | x6 | x6 |[M:5/8] x5 |[M:1/8] x | %11
[M:3/4] x6 | x6 | x6 |[M:5/8] x5 |[M:1/8] x |[M:3/4] z2 z .F3 | x6 | x6 |[M:5/8] x5 |[M:3/4] x6 | %21
 x6 | x6 |[M:5/8] x5 |[M:1/8] x |[M:3/4] x6 | x6 | x6 |[M:5/8] x5 |] %29

